assets/icons/qvision/call_to_action.svg

<svg xmlns="http://www.w3.org/2000/svg" height="24" viewBox="0 0 24 24" width="24"><path d="M0 0h24v24H0V0z" fill="none"/><path d="M21 3H3c-1.1 0-2 .9-2 2v14c0 1.1.9 2 2 2h18c1.1 0 2-.9 2-2V5c0-1.1-.9-2-2-2zm0 16H3v-3h18v3z"/></svg>

<svg width="24" height="24" viewBox="0 0 24 24" fill="none" xmlns="http://www.w3.org/2000/svg">
<g clip-path="url(#clip0_147_1391)">
<path d="M21 3H3C1.9 3 1 3.9 1 5V19C1 20.1 1.9 21 3 21H21C22.1 21 23 20.1 23 19V5C23 3.9 22.1 3 21 3ZM21 19H3V16H21V19Z" fill="#323232"/>
</g>
<defs>
<clipPath id="clip0_147_1391">
<rect width="24" height="24" fill="white"/>
</clipPath>
</defs>
</svg>
